assets/svg/illustrations/empty-cart.svg

<?xml version="1.0" encoding="utf-8"?>
<!-- Generator: Adobe Illustrator 24.1.1, SVG Export Plug-In . SVG Version: 6.00 Build 0)  -->
<svg version="1.1" id="Layer_1" xmlns="http://www.w3.org/2000/svg" xmlns:xlink="http://www.w3.org/1999/xlink" x="0px" y="0px"
	 viewBox="0 0 180.2 202.5" style="enable-background:new 0 0 180.2 202.5;" xml:space="preserve">
<style type="text/css">
	.st0{display:none;opacity:0.5;fill:url(#phone_stack_shadow_1_);enable-background:new    ;}
	.st1{fill:#1B3554;}
	.st2{fill:#E7EAF3;}
	.st3{fill:#BDC5D1;}
	.st4{fill:#FFFFFF;}
	.st5{opacity:0.5;fill:url(#Rectangle_19_2_);enable-background:new    ;}
	.st6{fill:#97A4AF;enable-background:new    ;}
	.st7{fill:#E7EAF3;enable-background:new    ;}
	.st8{fill:none;stroke:#97A4AF;stroke-width:5;stroke-linecap:round;stroke-linejoin:round;stroke-miterlimit:10;}
	.st9{fill:#377DFF;}
</style>
<linearGradient id="phone_stack_shadow_1_" gradientUnits="userSpaceOnUse" x1="671.0107" y1="-255.3118" x2="670.8267" y2="-255.0282" gradientTransform="matrix(779.557 0 0 292.144 -522949.3438 74663.1484)">
	<stop  offset="0.1966" style="stop-color:#D0DCF1"/>
	<stop  offset="0.4155" style="stop-color:#D6E1F3"/>
	<stop  offset="0.7162" style="stop-color:#E8EEF8"/>
	<stop  offset="1" style="stop-color:#FFFFFF"/>
</linearGradient>
<path id="phone_stack_shadow" class="st0" d="M-211.9,102.9L18.8,48.2L309.9,155L91.8,246.1"/>
<rect id="Rectangle_19_Copy_2" x="19" y="178.5" class="st1" width="124" height="12"/>
<rect id="Rectangle_19_Copy" x="20" y="14.5" class="st2" width="124" height="79"/>
<path id="Rectangle_3" class="st3" d="M20,14.5v120H0V61.9l10-15.4L20,14.5z"/>
<path id="Rectangle_3_Copy_3" class="st3" d="M143,14.5v120h20V61.9l-10-15.4L143,14.5z"/>
<path id="Rectangle_19_1_" class="st4" d="M0,61.5h163l0,0v136c0,2.8-2.2,5-5,5H5c-2.8,0-5-2.2-5-5V61.5L0,61.5z"/>
<linearGradient id="Rectangle_19_2_" gradientUnits="userSpaceOnUse" x1="0" y1="132" x2="163" y2="132">
	<stop  offset="0.1966" style="stop-color:#D0DCF1;stop-opacity:0.7"/>
	<stop  offset="0.4155" style="stop-color:#D6E1F3;stop-opacity:0.5"/>
	<stop  offset="0.7162" style="stop-color:#E8EEF8;stop-opacity:0.5"/>
	<stop  offset="1" style="stop-color:#FFFFFF;stop-opacity:0"/>
</linearGradient>
<path id="Rectangle_19" class="st5" d="M0,61.5h163l0,0v136c0,2.8-2.2,5-5,5H5c-2.8,0-5-2.2-5-5V61.5L0,61.5z"/>
<path id="Rectangle_3_Copy" class="st6" d="M49,120.8c0.2-2.8,2-5.3,4.6-6.3l3-0.9l5.1,1.7c1.3,0.5,2.2,1.8,2.3,3.2l0,0
	c-0.2,1.1-1.2,1.8-2.3,1.7l-5.2-1.7l-5.2,1.7c-1.1,0.2-2.1-0.6-2.3-1.7V120.8z"/>
<path id="Rectangle_3_Copy_2" class="st6" d="M100,120.8c0.2-2.8,2-5.3,4.6-6.3l3-0.9l5.1,1.7c1.3,0.5,2.2,1.8,2.3,3.2l0,0
	c-0.2,1.1-1.2,1.8-2.3,1.7l-5.2-1.7l-5.2,1.7c-1.1,0.2-2.1-0.6-2.3-1.7V120.8z"/>
<path id="Oval_10" class="st6" d="M82,144.5c8.8,0,16-5.2,16-14c-16-0.1-19.4,0.3-32,0C66,139.3,73.2,144.5,82,144.5z"/>
<circle id="Oval" class="st7" cx="45" cy="76.5" r="6"/>
<circle id="Oval_Copy" class="st7" cx="118" cy="76.5" r="6"/>
<path id="Oval_15" class="st8" d="M45,76.2V39C45,18.8,61.3,2.5,81.5,2.5S118,18.8,118,39v37.2"/>
<circle id="Oval_2-2" class="st9" cx="162.3" cy="175.7" r="17.6"/>
<g>
	<path class="st4" d="M167.4,175.7c0,2.5-0.4,4.4-1.2,5.6c-0.8,1.2-2.1,1.8-3.8,1.8c-1.7,0-2.9-0.6-3.8-1.9
		c-0.8-1.3-1.3-3.1-1.3-5.5c0-2.6,0.4-4.4,1.2-5.6c0.8-1.2,2.1-1.8,3.8-1.8c1.7,0,2.9,0.6,3.8,1.9
		C166.9,171.5,167.4,173.3,167.4,175.7z M160.3,175.7c0,1.8,0.2,3,0.5,3.8c0.3,0.8,0.8,1.2,1.5,1.2c0.7,0,1.2-0.4,1.5-1.2
		c0.3-0.8,0.5-2,0.5-3.8c0-1.8-0.2-3-0.5-3.8c-0.3-0.8-0.8-1.2-1.5-1.2c-0.7,0-1.2,0.4-1.5,1.2C160.5,172.7,160.3,174,160.3,175.7z"
		/>
</g>
</svg>

<svg width="181" height="203" viewBox="0 0 181 203" fill="none" xmlns="http://www.w3.org/2000/svg">
<g clip-path="url(#clip0)">
<path d="M143 178.5H19V190.5H143V178.5Z" fill="#1B3554"/>
<path d="M144 14.5H20V93.5H144V14.5Z" fill="#E7EAF3"/>
<path d="M20 14.5V134.5H0V61.9L10 46.5L20 14.5Z" fill="#BDC5D1"/>
<path d="M143 14.5V134.5H163V61.9L153 46.5L143 14.5Z" fill="#BDC5D1"/>
<path d="M0 61.5H163V197.5C163 200.3 160.8 202.5 158 202.5H5C2.2 202.5 0 200.3 0 197.5V61.5Z" fill="white"/>
<path opacity="0.5" d="M0 61.5H163V197.5C163 200.3 160.8 202.5 158 202.5H5C2.2 202.5 0 200.3 0 197.5V61.5Z" fill="url(#paint0_linear)"/>
<path d="M49 120.8C49.2 118 51 115.5 53.6 114.5L56.6 113.6L61.7 115.3C63 115.8 63.9 117.1 64 118.5C63.8 119.6 62.8 120.3 61.7 120.2L56.5 118.5L51.3 120.2C50.2 120.4 49.2 119.6 49 118.5V120.8Z" fill="#97A4AF"/>
<path d="M100 120.8C100.2 118 102 115.5 104.6 114.5L107.6 113.6L112.7 115.3C114 115.8 114.9 117.1 115 118.5C114.8 119.6 113.8 120.3 112.7 120.2L107.5 118.5L102.3 120.2C101.2 120.4 100.2 119.6 100 118.5V120.8V120.8Z" fill="#97A4AF"/>
<path d="M82 144.5C90.8 144.5 98 139.3 98 130.5C82 130.4 78.6 130.8 66 130.5C66 139.3 73.2 144.5 82 144.5Z" fill="#97A4AF"/>
<path d="M45 82.5C48.3137 82.5 51 79.8137 51 76.5C51 73.1863 48.3137 70.5 45 70.5C41.6863 70.5 39 73.1863 39 76.5C39 79.8137 41.6863 82.5 45 82.5Z" fill="#E7EAF3"/>
<path d="M118 82.5C121.314 82.5 124 79.8137 124 76.5C124 73.1863 121.314 70.5 118 70.5C114.686 70.5 112 73.1863 112 76.5C112 79.8137 114.686 82.5 118 82.5Z" fill="#E7EAF3"/>
<path d="M45 76.2V39C45 18.8 61.3 2.5 81.5 2.5C101.7 2.5 118 18.8 118 39V76.2" stroke="#97A4AF" stroke-width="5" stroke-miterlimit="10" stroke-linecap="round" stroke-linejoin="round"/>
<path d="M162.3 193.3C172.02 193.3 179.9 185.42 179.9 175.7C179.9 165.98 172.02 158.1 162.3 158.1C152.58 158.1 144.7 165.98 144.7 175.7C144.7 185.42 152.58 193.3 162.3 193.3Z" fill="#377dff"/>
<path d="M167.4 175.7C167.4 178.2 167 180.1 166.2 181.3C165.4 182.5 164.1 183.1 162.4 183.1C160.7 183.1 159.5 182.5 158.6 181.2C157.8 179.9 157.3 178.1 157.3 175.7C157.3 173.1 157.7 171.3 158.5 170.1C159.3 168.9 160.6 168.3 162.3 168.3C164 168.3 165.2 168.9 166.1 170.2C166.9 171.5 167.4 173.3 167.4 175.7ZM160.3 175.7C160.3 177.5 160.5 178.7 160.8 179.5C161.1 180.3 161.6 180.7 162.3 180.7C163 180.7 163.5 180.3 163.8 179.5C164.1 178.7 164.3 177.5 164.3 175.7C164.3 173.9 164.1 172.7 163.8 171.9C163.5 171.1 163 170.7 162.3 170.7C161.6 170.7 161.1 171.1 160.8 171.9C160.5 172.7 160.3 174 160.3 175.7Z" fill="white"/>
</g>
<defs>
<linearGradient id="paint0_linear" x1="0" y1="132" x2="163" y2="132" gradientUnits="userSpaceOnUse">
<stop offset="0.1966" stop-color="#D0DCF1" stop-opacity="0.7"/>
<stop offset="0.4155" stop-color="#D6E1F3" stop-opacity="0.5"/>
<stop offset="0.7162" stop-color="#E8EEF8" stop-opacity="0.5"/>
<stop offset="1" stop-color="white" stop-opacity="0"/>
</linearGradient>
<clipPath id="clip0">
<rect width="180.2" height="202.5" fill="white"/>
</clipPath>
</defs>
</svg>
